src/inbox-check.svg

<?xml version="1.0" encoding="UTF-8" standalone="no"?>
<svg width="20px" height="20px" viewBox="0 0 20 20" version="1.1" xmlns="http://www.w3.org/2000/svg" xmlns:xlink="http://www.w3.org/1999/xlink">
    <!-- Generator: Sketch 3.7.2 (28276) - http://www.bohemiancoding.com/sketch -->
    <title>inbox-check</title>
    <desc>Created with Sketch.</desc>
    <defs></defs>
    <g id="Page-1" stroke="none" stroke-width="1" fill="none" fill-rule="evenodd">
        <g id="inbox-check" fill="#000000">
            <path d="M14,14 L18,14 L18,2 L2,2 L2,14 L6,14 L6,14.0020869 C6,15.1017394 6.89458045,16 7.99810135,16 L12.0018986,16 C13.1132936,16 14,15.1055038 14,14.0020869 L14,14 Z M0,1.99079514 C0,0.891309342 0.898212381,0 1.99079514,0 L18.0092049,0 C19.1086907,0 20,0.898212381 20,1.99079514 L20,18.0092049 C20,19.1086907 19.1017876,20 18.0092049,20 L1.99079514,20 C0.891309342,20 0,19.1017876 0,18.0092049 L0,1.99079514 Z M5,9 L7,7 L9,9 L13,5 L15,7 L9,13 L5,9 Z" id="Combined-Shape"></path>
        </g>
    </g>
</svg>

<svg xmlns="http://www.w3.org/2000/svg" viewBox="0 0 20 20"><path d="M0 2C0 .9.9 0 2 0h16a2 2 0 0 1 2 2v16a2 2 0 0 1-2 2H2a2 2 0 0 1-2-2V2zm14 12h4V2H2v12h4c0 1.1.9 2 2 2h4a2 2 0 0 0 2-2zM5 9l2-2 2 2 4-4 2 2-6 6-4-4z"/></svg>
